src/assets/images/logo.svg

<svg width="272" height="24" viewBox="0 0 272 24" fill="none" xmlns="http://www.w3.org/2000/svg">
<path d="M206.25 4.74459C202.108 -2.31284 187.608 -1.56116 187.608 7.45905C187.608 16.4792 206.25 23.9963 206.25 23.9963C206.25 23.9963 224.893 16.4792 224.893 7.45905C224.893 -1.56116 210.393 -2.31284 206.25 4.74459Z" fill="#B90A16"/>
<path d="M10.9031 17.2174V23.6522H0V0H23.2599C32.7093 0 35.7621 2.57391 35.7621 7.33913V7.75652C35.7621 10.7826 34.1994 12.8696 31.0375 13.7391C34.054 14.3652 34.8899 15.9652 35.1806 18.4696L35.7985 23.6522H24.2775L23.8778 19.8957C23.696 18.1217 22.9328 17.2174 20.3888 17.2174H10.9031ZM24.6773 8.83478V8.73043C24.6773 7.44348 23.6234 6.95652 20.8976 6.95652H10.9031V10.6087H20.8976C23.6234 10.6087 24.6773 10.1217 24.6773 8.83478Z" fill="#EAE5DF"/>
<path d="M37.7988 23.6522V0H69.7812V6.95652H48.7019V9.21739H66.6556V14.4348H48.7019V16.6957H69.7812V23.6522H37.7988Z" fill="#EAE5DF"/>
<path d="M108.979 12.1043C108.979 20.5913 103.092 23.6522 92.4068 23.6522H71.8V0H92.4068C103.092 0 108.979 3.06087 108.979 11.5478V12.1043ZM97.713 11.9652V11.687C97.713 8.10435 95.2779 6.95652 90.9531 6.95652H82.7031V16.6957H90.9531C95.2779 16.6957 97.713 15.5478 97.713 11.9652Z" fill="#EAE5DF"/>
<path d="M121.851 17.2174V23.6522H110.947V0H134.207C143.657 0 146.71 2.57391 146.71 7.33913V7.75652C146.71 10.7826 145.147 12.8696 141.985 13.7391C145.001 14.3652 145.837 15.9652 146.128 18.4696L146.746 23.6522H135.225L134.825 19.8957C134.644 18.1217 133.88 17.2174 131.336 17.2174H121.851ZM135.625 8.83478V8.73043C135.625 7.44348 134.571 6.95652 131.845 6.95652H121.851V10.6087H131.845C134.571 10.6087 135.625 10.1217 135.625 8.83478Z" fill="#EAE5DF"/>
<path d="M159.395 10.3304C159.395 14.9913 161.612 17.0435 166.7 17.0435H167.572C172.66 17.0435 174.877 14.9913 174.877 10.3304V0H185.78V10.5739C185.78 20.5217 180.147 24 167.718 24H166.555C154.125 24 148.492 20.5217 148.492 10.5739V0H159.395V10.3304Z" fill="#EAE5DF"/>
<path d="M226.97 23.6522V0H242.344L249.54 14.1565L256.627 0H272V23.6522H261.279V9.70435L254.119 23.6522H244.67L237.51 9.70435V23.6522H226.97Z" fill="#EAE5DF"/>
</svg>

<svg xmlns="http://www.w3.org/2000/svg" width="272" height="24" fill="none"><path fill="#b90a16" d="M206.25 4.745c-4.142-7.058-18.642-6.306-18.642 2.714s18.642 16.537 18.642 16.537 18.643-7.517 18.643-16.537-14.5-9.772-18.643-2.714"/><path fill="#eae5df" d="M10.903 17.217v6.435H0V0h23.26c9.45 0 12.502 2.574 12.502 7.34v.417c0 3.026-1.563 5.113-4.724 5.982 3.016.626 3.852 2.226 4.143 4.73l.617 5.183h-11.52l-.4-3.756c-.182-1.774-.945-2.679-3.49-2.679zm13.774-8.382V8.73c0-1.287-1.054-1.773-3.78-1.773h-9.994v3.652h9.995c2.725 0 3.78-.487 3.78-1.774M37.799 23.652V0H69.78v6.957h-21.08v2.26h17.955v5.218H48.702v2.26h21.08v6.957zM108.979 12.104c0 8.487-5.887 11.548-16.572 11.548H71.8V0h20.607c10.685 0 16.572 3.06 16.572 11.548zm-11.266-.139v-.278c0-3.583-2.435-4.73-6.76-4.73h-8.25v9.739h8.25c4.325 0 6.76-1.148 6.76-4.73M121.851 17.217v6.435h-10.904V0h23.26c9.45 0 12.503 2.574 12.503 7.34v.417c0 3.026-1.563 5.113-4.725 5.982 3.016.626 3.852 2.226 4.143 4.73l.618 5.183h-11.521l-.4-3.756c-.181-1.774-.945-2.679-3.489-2.679zm13.774-8.382V8.73c0-1.287-1.054-1.773-3.78-1.773h-9.994v3.652h9.994c2.726 0 3.78-.487 3.78-1.774M159.395 10.33c0 4.661 2.217 6.714 7.305 6.714h.872c5.088 0 7.305-2.053 7.305-6.714V0h10.903v10.574c0 9.948-5.633 13.426-18.062 13.426h-1.163c-12.43 0-18.063-3.478-18.063-13.426V0h10.903zM226.97 23.652V0h15.374l7.196 14.157L256.627 0H272v23.652h-10.721V9.704l-7.16 13.948h-9.449l-7.16-13.948v13.948z"/></svg>
